dist/svg/folder-user.svg

<svg width="16" height="16" viewBox="0 0 16 16" fill="rgb(34, 34, 34)" xmlns="http://www.w3.org/2000/svg"><title>folder-user</title><g clip-path="url(#clip0_271_109)"><path d="M14.738 14.995H9.26199C8.68799 14.995 8.32299 14.888 8.16699 14.675C8.00499 14.457 7.96099 14.202 8.03399 13.911C8.10699 13.62 8.24799 13.326 8.45599 13.029C8.66399 12.732 8.85199 12.501 9.01899 12.335C9.30099 12.044 9.61899 11.794 9.97299 11.586C10.327 11.378 10.706 11.219 11.107 11.11L11.138 11.102V10.798C10.799 10.637 10.523 10.395 10.309 10.072C10.1 9.75 9.99599 9.391 9.99599 8.996C9.99599 8.72 10.048 8.46 10.152 8.216C10.256 7.977 10.4 7.766 10.582 7.584C10.764 7.402 10.976 7.259 11.216 7.155C11.461 7.051 11.722 6.999 11.998 6.999C12.274 6.999 12.535 7.051 12.78 7.155C13.02 7.259 13.231 7.402 13.414 7.584C13.597 7.766 13.74 7.977 13.844 8.216C13.948 8.46 14 8.72 14 8.996C14 9.391 13.893 9.75 13.679 10.072C13.47 10.394 13.199 10.636 12.866 10.798H12.858V11.102C13.275 11.216 13.661 11.378 14.016 11.586C14.376 11.794 14.697 12.044 14.978 12.335C15.145 12.501 15.333 12.733 15.541 13.029C15.749 13.325 15.89 13.619 15.963 13.91C16.036 14.201 15.992 14.456 15.83 14.674C15.674 14.887 15.309 14.994 14.735 14.994L14.738 14.995ZM7.00799 14C7.01799 13.889 7.03699 13.778 7.06399 13.668C7.17199 13.236 7.37399 12.831 7.63899 12.454C7.86299 12.136 8.08599 11.856 8.30699 11.634C8.65099 11.279 9.03899 10.976 9.46799 10.724C9.48599 10.713 9.50399 10.703 9.52199 10.693C9.50699 10.671 9.49199 10.649 9.47699 10.626L9.47099 10.617C9.15499 10.128 8.99799 9.579 8.99799 8.997C8.99799 8.592 9.07499 8.198 9.23499 7.824L9.23799 7.817C9.39199 7.464 9.60599 7.149 9.87899 6.877C10.152 6.605 10.468 6.392 10.821 6.239L10.828 6.236C11.201 6.078 11.596 6.001 12.001 6.001C12.406 6.001 12.801 6.078 13.174 6.236L13.181 6.239C13.534 6.392 13.85 6.606 14.123 6.877C14.396 7.148 14.61 7.464 14.764 7.817L14.767 7.824C14.926 8.197 15.004 8.591 15.004 8.997C15.004 9.582 14.843 10.133 14.52 10.621C14.504 10.645 14.488 10.669 14.472 10.693C14.481 10.698 14.49 10.704 14.499 10.709C14.507 10.714 14.515 10.718 14.523 10.723C14.957 10.975 15.349 11.278 15.695 11.635C15.797 11.737 15.899 11.852 16.002 11.977V5.001H0.00199292V12.938C0.00199292 13.219 0.0959929 13.464 0.282993 13.672C0.480993 13.87 0.720993 13.979 1.00199 14H7.00999H7.00799ZM7.99999 2L6.99999 0H0.936993C0.676993 0 0.452993 0.094 0.264993 0.281C0.0879929 0.458 -0.00100708 0.672 -0.00100708 0.922V4H15.999V2.937C15.999 2.677 15.905 2.458 15.718 2.281C15.541 2.093 15.322 2 15.062 2H7.99899H7.99999Z" fill="rgb(34, 34, 34)" fill-opacity="1.00"/></g><defs><clipPath id="clip0_271_109"><rect width="16" height="16" fill="rgb(34, 34, 34)"/></clipPath></defs></svg>

<!-- Generated by Trend Micro Style Portal -->
<svg version="1.1" xmlns="http://www.w3.org/2000/svg" width="16" height="16" viewBox="0 0 16 16">
  <title>folder-user</title>
  <path fill="rgb(34,34,34)" d="M14.738 14.995h-5.476c-0.574 0-0.939-0.107-1.095-0.32-0.162-0.218-0.206-0.473-0.133-0.764s0.214-0.585 0.422-0.882 0.396-0.528 0.563-0.694c0.282-0.291 0.6-0.541 0.954-0.749s0.733-0.367 1.134-0.476l0.031-0.008v-0.304c-0.339-0.161-0.615-0.403-0.829-0.726-0.209-0.322-0.313-0.681-0.313-1.076 0-0.276 0.052-0.536 0.156-0.78 0.104-0.239 0.248-0.45 0.43-0.632s0.394-0.325 0.634-0.429c0.245-0.104 0.506-0.156 0.782-0.156s0.537 0.052 0.782 0.156c0.24 0.104 0.451 0.247 0.634 0.429s0.326 0.393 0.43 0.632c0.104 0.244 0.156 0.504 0.156 0.78 0 0.395-0.107 0.754-0.321 1.076-0.209 0.322-0.48 0.564-0.813 0.726h-0.008v0.304c0.417 0.114 0.803 0.276 1.158 0.484 0.36 0.208 0.681 0.458 0.962 0.749 0.167 0.166 0.355 0.398 0.563 0.694s0.349 0.59 0.422 0.881c0.073 0.291 0.029 0.546-0.133 0.764-0.156 0.213-0.521 0.32-1.095 0.32zM7.008 14c0.010-0.111 0.029-0.222 0.056-0.332 0.108-0.432 0.31-0.837 0.575-1.214 0.224-0.318 0.447-0.598 0.668-0.82 0.344-0.355 0.732-0.658 1.161-0.91 0.018-0.011 0.036-0.021 0.054-0.031-0.015-0.022-0.030-0.044-0.045-0.067l-0.006-0.009c-0.316-0.489-0.473-1.038-0.473-1.62 0-0.405 0.077-0.799 0.237-1.173l0.003-0.007c0.154-0.353 0.368-0.668 0.641-0.94s0.589-0.485 0.942-0.638l0.007-0.003c0.373-0.158 0.768-0.235 1.173-0.235s0.8 0.077 1.173 0.235l0.007 0.003c0.353 0.153 0.669 0.367 0.942 0.638s0.487 0.587 0.641 0.94l0.003 0.007c0.159 0.373 0.237 0.767 0.237 1.173 0 0.585-0.161 1.136-0.484 1.624-0.016 0.024-0.032 0.048-0.048 0.072 0.009 0.005 0.018 0.011 0.027 0.016 0.008 0.005 0.016 0.009 0.024 0.014 0.434 0.252 0.826 0.555 1.172 0.912 0.102 0.102 0.204 0.217 0.307 0.342v-6.976h-16v7.937c0 0.281 0.094 0.526 0.281 0.734 0.198 0.198 0.438 0.307 0.719 0.328h6.008zM8 2l-1-2h-6.063c-0.26 0-0.484 0.094-0.672 0.281-0.177 0.177-0.266 0.391-0.266 0.641v3.078h16v-1.063c0-0.26-0.094-0.479-0.281-0.656-0.177-0.188-0.396-0.281-0.656-0.281h-7.063z"></path>
</svg>
